X:83
T:Mason's Apron
C:Traditional
L:1/8
M:C
Q:1/4=80
K:A treble
(ueg) |: "A" aA (3AAA (cB)A(F | "(E)" EF)AB "A" c(ABc) |
"D" dB (3BBB (dc)BA | "E" GABc "E7" defg |
"A" aA (3AAA (cB)A(F | "(E)" EF)A(B "A" cA)B(c |
"Bm" dc)d(e "D" fg)af |1 "E" e(cBc) "A" A2 (eg) :|2 "E" e(cBc) "A" A2 (AB) ||
|: "A" c2 ([ec]c) [fc]c[ec]c | (3ccc ([ec]c) [fc]c[ec]c |
   "D" d2 ([fd]d) [gd]d[fd]d | (3ddd ([fd]d) "E" [gd]d[fd]d |
   "A" c2 ([ec]c) [fc]c[ec]c | (3ccc ([ec]c) [fc]c[ec](c |
"Bm" dc)d(e "D" fg)af |1 "E" e(cBc) "A" A2 (ed) :|2 "E" e(cBc) "A" A2 |]
N:Gabe Payne

